X:3206
T:Polones nr 64
S:efter avskrift (låt nr 64 häri) av [[Personer/Samuel Landtmanson]] 
S:efter Gustaf Blidström
R:Polska
O:Tobolsk, Ryssland / Skara, Västergötland
B:Blidströms Menuetter och Polska Dantzar
M:3/4
L:1/16
Z:Per Oldberg 2013
V:1 clef=treble
V:2 clef=treble 
K:Cmaj
V:1
|: "C"c2cB c4G4 | E2EF G8 | "Dm"A2G2F2E2D2c2 | "G"B2dB "C"c8 :| 
V:2
|: E2ED E4E4 | C2CD E8 | F2E2D2C2A,2A2 | G2BG E8 :| 
V:1
|: "C"e2ed c2d2e2f2 | g2g^f g8 | "F"a2ag a4 "Dm"g2f2 | "C"e2ef g6f2 | 
V:2
|: c2cB G2B2c2d2 | e2ed e8 | f2fef4 e2d2 | c2cde6d2 |  
V:1
"C"e2ed c2d2e2f2 | g2g^f g8 | "F"a2ag f2e2"Dm"d2c2 | "G"B2AG "C"c8 :|  
V:2
c2cB G2B2c2d2 | e2ed e8 | f2fe d2c2B2A2 | G2FD E8 :| 
(:musicend:)
(:music:)
